X:882
T:Mystery Reel, The
R:reel
Z:id:hn-reel-882
M:C|
L:1/8
K:G
egdB ~A3B | ~G3B A2 (3Bcd | e2dB A2BA |1 GEDE GA (3Bcd :|2 GEDE GBdc ||
|: BGGF GEDE | GABd dBGB | A2GB AEGA |1 (3Bcd ed gedc :|2 (3Bcd ed gedB ||
|: ~G3E DEGB | dBGB AE~E2 | GAGE DEGF |1 GBdB (3ABA G2 :|2 GBdB (3ABA G2 ||
|: gede g2ag | egde ge~e2 |1 gede g2ag | egde ~g3a :|2 ~g3e a2ba | geeg b2ag ||  
P:variations
(3efg dB ~A3B | ~G3B A2 (3Bcd | eBdB A2BA | GEDE GA (3Bcd |
e2dB ~A3B | ~G3B A2 (3Bcd | egdB AcBA | GEDE G2dc ||
|: BG~G2 GEDG | BGAB GEDG | EAAG AGED |1 (3Bcd ed gedc :|2 (3Bcd ed gedB ||
|: ~G3E DEGB | dGBG AE~E2 | GAGE DEGD |1 GBdB (3ABA G2 :|2 GBdB (3ABA G2 ||
|: gede g2ag | egde ge~e2 |1 gede g2ag | (3efg fa ~g3f :|2 ~g3e a2ba | gedg b2ag ||  

